svg/300/outlined/contact_page-fill.svg

<svg xmlns="http://www.w3.org/2000/svg" width="48" height="48" viewBox="0 -960 960 960"><path d="M480-409.231q29.154 0 49.576-20.423 20.423-20.423 20.423-49.577 0-29.153-20.423-49.576Q509.154-549.23 480-549.23t-49.576 20.423q-20.423 20.423-20.423 49.576 0 29.154 20.423 49.577 20.422 20.423 49.576 20.423ZM330.001-261.54h299.998v-14.538q0-21.307-11.461-37.846-11.462-16.538-31.384-25.384-24.847-10.615-51.577-16.423-26.731-5.808-55.577-5.808-28.846 0-55.577 5.808-26.73 5.808-51.577 16.423-19.922 8.846-31.384 25.384-11.461 16.539-11.461 37.846v14.538Zm392.305 161.539H237.694q-23.529 0-40.611-17.082-17.082-17.082-17.082-40.611v-644.612q0-23.529 17.082-40.611 17.082-17.082 40.611-17.082h314.459l227.846 227.846v474.459q0 23.529-17.082 40.611-17.082 17.082-40.611 17.082Z"/></svg>

<svg xmlns="http://www.w3.org/2000/svg" width="48" height="48" viewBox="0 -960 960 960"><path d="M480-409.23q29.15 0 49.58-20.42Q550-450.08 550-479.23t-20.42-49.58q-20.43-20.42-49.58-20.42t-49.58 20.42Q410-508.38 410-479.23t20.42 49.58q20.43 20.42 49.58 20.42ZM330-261.54h300v-14.54q0-21.31-11.46-37.84-11.46-16.54-31.39-25.39-24.84-10.61-51.57-16.42-26.73-5.81-55.58-5.81-28.85 0-55.58 5.81-26.73 5.81-51.57 16.42-19.93 8.85-31.39 25.39Q330-297.39 330-276.08v14.54ZM722.31-100H237.69q-23.53 0-40.61-17.08T180-157.69v-644.62q0-23.53 17.08-40.61T237.69-860h314.46L780-632.15v474.46q0 23.53-17.08 40.61T722.31-100Z"/></svg>
